X: 204
T: Bak Araplar Bu Makama...
C: Ahmet Avni Konuk
O: Turkey
F: http://compmusic.upf.edu/node/140
N: gulzar--kupe--yuruksemai_ii--bak--ahmet_avni_konuk
N: makam= gulzar
N: form= kupe
N: usul= yuruksemai_ii = 6/8
M: 6/8
L: 1/16
K: C _1/4B   
Q: 1/4=120
%%MIDI tuningsystem comma53
G^3/4FE2 F2G6  | G2A2 _2/4B2c2 d2cB  | \
w:  Bak  *  *  A rap  |  lar   | 
e4 edd2 c2c_2/4B  | B^3/4AB8z2  | 
w:  bu  ma *  ka  |  ma   | 
A2A2 _2/4B2c2 c2e2  | d2d2 e2dc _2/4BAG2  | \
w:  bir  *  Re hâ  |  vî  | 
A_2/4BA2 G2Ac BAG^F  | 
w:  dir  *  *  *  *  *  *  *  de  | 
G8-G2z2  | G4 d2d4dc  | c2_B2 B2BA A2AG  | \
w:  miş    |  Türk le rin   |  in  | 
GAG2 F2G2 A2AG  | 
w:  din *  *  de  bu   | 
G2F2 EFG2 E2F2  | c4 d2d2 c2_B2  | A2G2 A2G2 F4  | \
w:  sey  |  rin  a dı   |  Gül  | 
F2E2 F2E2 D2^C2  | 
w:  zâr  *  i miş    | 
D8-D2z2  | |


